src/assets/svgs/Parallax-Ripples.svg

<svg xmlns="http://www.w3.org/2000/svg" width="1920" height="1080" fill="none" xmlns:v="https://vecta.io/nano"><mask id="A" maskUnits="userSpaceOnUse" x="-347" y="-589" width="2614" height="1846"><path d="M2266.11-588.13H-347v1844.22h2613.11V-588.13z" fill="#fff"/></mask><g mask="url(#A)"><path opacity=".15" fill-rule="evenodd" d="M1940.27 964.627s-156.53 9.245-156.53 16.193 452.58 5.403 452.58 0-105.49-10.038-105.49-10.038 22.97 1.932 14.46 6.949c-8.5 5.021-242.45 9.313-205.02-13.104zm-180.91 28.286s-54.69 4.62-54.69 8.097 158.13 2.7 158.13 0-36.85-5.022-36.85-5.022 8.02.969 5.05 3.477c-2.97 2.515-84.72 4.655-71.64-6.552zm-1782.92 7.337s120.68 21.88 155.234 19.57c34.551-2.32 3.757-9.7 3.757-9.7s240.36-2.32 246.369 9.87c6.006 12.18-290.939 20.93-405.36-19.74z" fill="#4685e4"/><path fill-rule="evenodd" d="M449.118 1030.44c-2.252 18.33 165.247 35.39 198.298 20.92s42.065-7.74 42.065-7.74-54.083 40.81 205.809 37.57 270.4-29.82 270.4-29.82l187.79-6.91-268.16-3.25s41.32 2.38 4.51 14.7c-36.8 12.31-319.979 40.41-311.716 7.99 8.264-32.41 137.457-27.01 137.457-27.01l-355.283-6.44s66.779-1.45 66.85 11.85-153.793-1.89-166.937-6.21c-13.149-4.34-11.083-5.65-11.083-5.65z" fill="url(#B)" fill-opacity=".3" style="mix-blend-mode:multiply"/><path opacity=".6" fill-rule="evenodd" d="M926.712 1086.19c0 3.6-17.712 6.51-39.56 6.51s-39.561-2.91-39.561-6.51 17.712-6.52 39.561-6.52 39.56 2.92 39.56 6.52z" fill="#7ae7f8"/></g><defs><linearGradient id="B" x1="894.188" y1="881.451" x2="923.478" y2="1145.25" gradientUnits="userSpaceOnUse"><stop stop-color="#00554b" stop-opacity="0"/><stop offset=".994" stop-color="#70bbb1"/></linearGradient></defs></svg>

<svg width="1920" height="1080" viewBox="0 0 1920 1080" fill="none" xmlns="http://www.w3.org/2000/svg">
<mask id="mask0_44_2006" style="mask-type:luminance" maskUnits="userSpaceOnUse" x="-347" y="-589" width="2614" height="1846">
<path d="M2266.11 -588.13H-347V1256.09H2266.11V-588.13Z" fill="white"/>
</mask>
<g mask="url(#mask0_44_2006)">
<path opacity="0.15" fill-rule="evenodd" clip-rule="evenodd" d="M1940.27 964.627C1940.27 964.627 1783.74 973.872 1783.74 980.82C1783.74 987.768 2236.32 986.223 2236.32 980.82C2236.32 975.416 2130.83 970.782 2130.83 970.782C2130.83 970.782 2153.8 972.714 2145.29 977.731C2136.79 982.752 1902.84 987.044 1940.27 964.627Z" fill="#4685E4"/>
<path opacity="0.15" fill-rule="evenodd" clip-rule="evenodd" d="M1759.36 992.913C1759.36 992.913 1704.67 997.533 1704.67 1001.01C1704.67 1004.49 1862.8 1003.71 1862.8 1001.01C1862.8 998.307 1825.95 995.988 1825.95 995.988C1825.95 995.988 1833.97 996.957 1831 999.465C1828.03 1001.98 1746.28 1004.12 1759.36 992.913Z" fill="#4685E4"/>
<path opacity="0.15" fill-rule="evenodd" clip-rule="evenodd" d="M-23.5596 1000.25C-23.5596 1000.25 97.1201 1022.13 131.674 1019.82C166.225 1017.5 135.431 1010.12 135.431 1010.12C135.431 1010.12 375.791 1007.8 381.8 1019.99C387.806 1032.17 90.8614 1040.92 -23.5596 1000.25Z" fill="#4685E4"/>
<path fill-rule="evenodd" clip-rule="evenodd" d="M449.118 1030.44C446.866 1048.77 614.365 1065.83 647.416 1051.36C680.465 1036.89 689.481 1043.62 689.481 1043.62C689.481 1043.62 635.398 1084.43 895.29 1081.19C1155.18 1077.95 1165.69 1051.37 1165.69 1051.37L1353.48 1044.46L1085.32 1041.21C1085.32 1041.21 1126.64 1043.59 1089.83 1055.91C1053.03 1068.22 769.851 1096.32 778.114 1063.9C786.378 1031.49 915.571 1036.89 915.571 1036.89L560.288 1030.45C560.288 1030.45 627.067 1029 627.138 1042.3C627.211 1055.6 473.345 1040.41 460.201 1036.09C447.052 1031.75 449.118 1030.44 449.118 1030.44Z" fill="url(#paint0_linear_44_2006)" fill-opacity="0.3" style="mix-blend-mode:multiply"/>
<path opacity="0.6" fill-rule="evenodd" clip-rule="evenodd" d="M926.712 1086.19C926.712 1089.79 909 1092.7 887.152 1092.7C865.303 1092.7 847.591 1089.79 847.591 1086.19C847.591 1082.59 865.303 1079.67 887.152 1079.67C909 1079.67 926.712 1082.59 926.712 1086.19Z" fill="#7AE7F8"/>
</g>
<defs>
<linearGradient id="paint0_linear_44_2006" x1="894.188" y1="881.451" x2="923.478" y2="1145.25" gradientUnits="userSpaceOnUse">
<stop stop-color="#00554B" stop-opacity="0"/>
<stop offset="0.9944" stop-color="#70BBB1"/>
</linearGradient>
</defs>
</svg>
